X:70
T:Mony Musk. JBu.70
O:England,South Yorkshire
S:Joshua Burnett’s MS,c1835,S.Yorkshire
M:C|
L:1/8
Q:1/4=110
R:strathspey
Z:vmp.R.Greig.2011
K:A
f|e>Ac>A e>Ad>f|e>Ac>A Bc/B/ d>f|e>Ac>A cd/e/ e>a|f>dB>e c>AA:|
|:f/g/|a>ec>a e>ac>g|a>ed>a c>aB>g|a>ef>a e>ac>a|f>dB>e c>AA f/g/|
a>ec>a e>ac>g|a>ed>a c>aB>g|a>ef>g e>ad>a|c>aB>g c>AA:|

